assets/icon/instagram.svg

<svg fill="none" height="800" viewBox="0 0 48 48" width="800" xmlns="http://www.w3.org/2000/svg"><circle cx="24" cy="24" fill="#c13584" r="20"/><g fill="#fff"><path d="m24 14.1622c3.2041 0 3.5837.0122 4.849.0699 1.17.0534 1.8054.2489 2.2283.4132.5601.2177.9598.4777 1.3797.8976.42.42.68.8197.8977 1.3798.1643.4229.3598 1.0583.4132 2.2282.0577 1.2654.0699 1.6449.0699 4.849 0 3.2042-.0122 3.5837-.0699 4.8491-.0534 1.17-.2489 1.8053-.4132 2.2282-.2177.5601-.4777.9599-.8976 1.3798-.42.4199-.8197.6799-1.3798.8976-.4229.1644-1.0583.3598-2.2283.4132-1.2651.0577-1.6446.07-4.849.07s-3.5838-.0123-4.849-.07c-1.17-.0534-1.8054-.2488-2.2283-.4132-.5601-.2177-.9598-.4777-1.3797-.8976s-.68-.8197-.8977-1.3798c-.1643-.4229-.3598-1.0582-.4132-2.2282-.0577-1.2654-.0699-1.6449-.0699-4.8491 0-3.2041.0122-3.5836.0699-4.849.0534-1.1699.2489-1.8053.4132-2.2282.2177-.5601.4777-.9598.8977-1.3797.4199-.42.8196-.68 1.3797-.8977.4229-.1643 1.0583-.3598 2.2283-.4132 1.2653-.0577 1.6449-.0699 4.849-.0699zm0-2.1622c-3.259 0-3.6677.0138-4.9476.0722-1.2772.0583-2.1496.2611-2.9129.5578-.7891.3066-1.4583.7169-2.1254 1.3841-.6672.6671-1.0775 1.3363-1.3841 2.1254-.2967.7633-.4995 1.6356-.5578 2.9129-.0584 1.2799-.0722 1.6886-.0722 4.9475 0 3.2591.0138 3.6677.0722 4.9476.0583 1.2773.2611 2.1496.5578 2.9129.3066.7891.7169 1.4583 1.3841 2.1255.6671.6671 1.3363 1.0774 2.1254 1.384.7633.2967 1.6357.4995 2.9129.5578 1.2799.0584 1.6886.0722 4.9476.0722s3.6677-.0138 4.9476-.0722c1.2772-.0583 2.1496-.2611 2.9129-.5578.7891-.3066 1.4583-.7169 2.1254-1.384.6671-.6672 1.0775-1.3364 1.3841-2.1255.2967-.7633.4995-1.6356.5578-2.9129.0584-1.2799.0722-1.6885.0722-4.9476 0-3.2589-.0138-3.6676-.0722-4.9475-.0583-1.2773-.2611-2.1496-.5578-2.9129-.3066-.7891-.717-1.4583-1.3841-2.1254-.6671-.6672-1.3363-1.0775-2.1254-1.3841-.7633-.2967-1.6357-.4995-2.9129-.5578-1.2799-.0584-1.6886-.0722-4.9476-.0722z"/><path d="m24.0059 17.8433c-3.4033 0-6.1621 2.7588-6.1621 6.1621s2.7588 6.1621 6.1621 6.1621 6.1622-2.7588 6.1622-6.1621-2.7589-6.1621-6.1622-6.1621zm0 10.1621c-2.2091 0-4-1.7909-4-4s1.7909-4 4-4c2.2092 0 4 1.7909 4 4s-1.7908 4-4 4z"/><path d="m31.8507 17.5963c0 .7952-.6447 1.44-1.44 1.44s-1.44-.6448-1.44-1.44c0-.7953.6447-1.4401 1.44-1.4401s1.44.6448 1.44 1.4401z"/></g></svg>

<?xml version="1.0" encoding="utf-8"?><!-- Uploaded to: SVG Repo, www.svgrepo.com, Generator: SVG Repo Mixer Tools -->
<svg width="800px" height="800px" viewBox="0 0 48 48" fill="none" xmlns="http://www.w3.org/2000/svg">
<circle cx="24" cy="24" r="20" fill="#C13584"/>
<path d="M24 14.1622C27.2041 14.1622 27.5837 14.1744 28.849 14.2321C30.019 14.2855 30.6544 14.481 31.0773 14.6453C31.6374 14.863 32.0371 15.123 32.457 15.5429C32.877 15.9629 33.137 16.3626 33.3547 16.9227C33.519 17.3456 33.7145 17.981 33.7679 19.1509C33.8256 20.4163 33.8378 20.7958 33.8378 23.9999C33.8378 27.2041 33.8256 27.5836 33.7679 28.849C33.7145 30.019 33.519 30.6543 33.3547 31.0772C33.137 31.6373 32.877 32.0371 32.4571 32.457C32.0371 32.8769 31.6374 33.1369 31.0773 33.3546C30.6544 33.519 30.019 33.7144 28.849 33.7678C27.5839 33.8255 27.2044 33.8378 24 33.8378C20.7956 33.8378 20.4162 33.8255 19.151 33.7678C17.981 33.7144 17.3456 33.519 16.9227 33.3546C16.3626 33.1369 15.9629 32.8769 15.543 32.457C15.1231 32.0371 14.863 31.6373 14.6453 31.0772C14.481 30.6543 14.2855 30.019 14.2321 28.849C14.1744 27.5836 14.1622 27.2041 14.1622 23.9999C14.1622 20.7958 14.1744 20.4163 14.2321 19.1509C14.2855 17.981 14.481 17.3456 14.6453 16.9227C14.863 16.3626 15.123 15.9629 15.543 15.543C15.9629 15.123 16.3626 14.863 16.9227 14.6453C17.3456 14.481 17.981 14.2855 19.151 14.2321C20.4163 14.1744 20.7959 14.1622 24 14.1622ZM24 12C20.741 12 20.3323 12.0138 19.0524 12.0722C17.7752 12.1305 16.9028 12.3333 16.1395 12.63C15.3504 12.9366 14.6812 13.3469 14.0141 14.0141C13.3469 14.6812 12.9366 15.3504 12.63 16.1395C12.3333 16.9028 12.1305 17.7751 12.0722 19.0524C12.0138 20.3323 12 20.741 12 23.9999C12 27.259 12.0138 27.6676 12.0722 28.9475C12.1305 30.2248 12.3333 31.0971 12.63 31.8604C12.9366 32.6495 13.3469 33.3187 14.0141 33.9859C14.6812 34.653 15.3504 35.0633 16.1395 35.3699C16.9028 35.6666 17.7752 35.8694 19.0524 35.9277C20.3323 35.9861 20.741 35.9999 24 35.9999C27.259 35.9999 27.6677 35.9861 28.9476 35.9277C30.2248 35.8694 31.0972 35.6666 31.8605 35.3699C32.6496 35.0633 33.3188 34.653 33.9859 33.9859C34.653 33.3187 35.0634 32.6495 35.37 31.8604C35.6667 31.0971 35.8695 30.2248 35.9278 28.9475C35.9862 27.6676 36 27.259 36 23.9999C36 20.741 35.9862 20.3323 35.9278 19.0524C35.8695 17.7751 35.6667 16.9028 35.37 16.1395C35.0634 15.3504 34.653 14.6812 33.9859 14.0141C33.3188 13.3469 32.6496 12.9366 31.8605 12.63C31.0972 12.3333 30.2248 12.1305 28.9476 12.0722C27.6677 12.0138 27.259 12 24 12Z" fill="white"/>
<path d="M24.0059 17.8433C20.6026 17.8433 17.8438 20.6021 17.8438 24.0054C17.8438 27.4087 20.6026 30.1675 24.0059 30.1675C27.4092 30.1675 30.1681 27.4087 30.1681 24.0054C30.1681 20.6021 27.4092 17.8433 24.0059 17.8433ZM24.0059 28.0054C21.7968 28.0054 20.0059 26.2145 20.0059 24.0054C20.0059 21.7963 21.7968 20.0054 24.0059 20.0054C26.2151 20.0054 28.0059 21.7963 28.0059 24.0054C28.0059 26.2145 26.2151 28.0054 24.0059 28.0054Z" fill="white"/>
<path d="M31.8507 17.5963C31.8507 18.3915 31.206 19.0363 30.4107 19.0363C29.6154 19.0363 28.9707 18.3915 28.9707 17.5963C28.9707 16.801 29.6154 16.1562 30.4107 16.1562C31.206 16.1562 31.8507 16.801 31.8507 17.5963Z" fill="white"/>
</svg>
